X: 142
T: Teton Mountain Stomp
Z: originally transcribed by Deborah Jones
M: 2/4
L: 1/8
Q: 1/4=120
K: D
P:A
[A2e2][A2D2]| [G,D][G,D] [A2D2] | A A/A/ B=c| c2 [A2a2]|
P:B
|: "D" A2 A>^G| BA F2| "G" EE/E/ ED| ED G,2|
 "D" A,A, D2|"A7" CC E2| "D" F/E/D/F/ "A7" E/D/C/E/|[1 D z FE :|[2 D z D2|
P:C
"G" GG/G/ GG/D/| GA B2|"D" AA/A/ A/A/B| AF D2|
"E" EE/E/ A2 | "E7" ^GG/G/ B2| "A7" AA GG| FF E2|
"D" A2 A>^A| BA F2| "G" EE/E/ ED | ED G,2| "D" A,A, D2|
"A7" CC E2| "D" F/E/D/F/ "A7" E/D/C/E/ | D z d2|
P:D
K: G
"G" GG/G/ GG| G/F/G/A/ B2| GG/G/ GA| GE D2|
GG B2| GG B2| cB AG| "D7" F2 D2| AA/A/ AA|
A2 D2| AA/A/ AA| AF D2 | AA c2 |AA c2|
dcBA|"G" G2 "D7" d2| "G" GG/G/ GG| GA B2|
GG/G/ GG|GE D2| GG B2| GG B2|
BA A#G| A2 A2| ee/e/ ee| ec A2|
dd/d/ dd| dB G2|"D" AA c2| AA c2| "G" BB "D7" |G z "A7" A2|
